flaticon/essential/bluetooth-1.svg

<svg xmlns="http://www.w3.org/2000/svg" width="32" height="32" viewBox="0 0 24 24">
    <path d="M 18.023438 6.398438 L 11.625 0 L 11.625 10.671875 L 6.605469 5.652344 L 5.976562 6.277344 L 11.625 11.929688 L 11.625 12.007812 L 5.976562 17.65625 L 6.605469 18.285156 L 11.625 13.265625 L 11.625 24 L 18.023438 17.070312 L 12.902344 11.945312 Z M 12.515625 2.148438 L 16.789062 6.421875 L 12.515625 11.054688 Z M 12.515625 21.726562 L 12.515625 12.820312 L 16.789062 17.09375 Z M 12.515625 21.726562"/>
</svg>

<svg xmlns="http://www.w3.org/2000/svg" width="32" height="32" viewBox="0 0 24 24">
    <path d="M18.023 6.398L11.625 0v10.672l-5.02-5.02-.628.625 5.648 5.653v.078l-5.648 5.648.628.63 5.02-5.02V24l6.398-6.93-5.12-5.125zm-5.507-4.25l4.273 4.274-4.273 4.633zm0 19.579V12.82l4.273 4.274zm0 0"/>
</svg>
